flaticon/game/zombie.svg

<svg xmlns="http://www.w3.org/2000/svg" width="32" height="32" viewBox="0 0 24 24">
    <path d="M11.144531 7.714844L2.570312 7.714844 2.570312 12 11.144531 12zM10.285156 8.824219L7.964844 11.144531 7.035156 11.144531 9.605469 8.570312 10.285156 8.570312zM5.824219 11.144531L4.890625 11.144531 7.464844 8.570312 8.394531 8.570312zM4.109375 8.570312L3.429688 9.25 3.429688 8.570312zM3.429688 10.464844L5.320312 8.570312 6.25 8.570312 3.679688 11.144531 3.429688 11.144531zM9.175781 11.144531L10.285156 10.035156 10.285156 11.144531zM7.714844 18.855469L16.285156 18.855469 16.285156 16.285156 7.714844 16.285156zM8.570312 17.144531L15.429688 17.144531 15.429688 18 8.570312 18zM12.855469 12L21.429688 12 21.429688 7.714844 12.855469 7.714844zM13.714844 10.464844L15.605469 8.570312 16.535156 8.570312 13.964844 11.144531 13.714844 11.144531zM17.75 8.570312L18.679688 8.570312 16.109375 11.144531 15.175781 11.144531zM19.464844 11.144531L20.570312 10.035156 20.570312 11.144531zM20.570312 8.824219L18.25 11.144531 17.320312 11.144531 19.890625 8.570312 20.570312 8.570312zM14.394531 8.570312L13.714844 9.25 13.714844 8.570312zM14.394531 8.570312"/>
    <path d="M 0 0 L 0 24 L 24 24 L 24 0 Z M 0.855469 0.855469 L 23.144531 0.855469 L 23.144531 4.285156 L 18 4.285156 L 18 2.144531 L 9.855469 2.144531 L 9.855469 3.429688 L 2.570312 3.429688 L 2.570312 6 L 0.855469 6 Z M 23.144531 23.144531 L 0.855469 23.144531 L 0.855469 18.855469 L 4.714844 18.855469 L 4.714844 20.570312 L 21.855469 20.570312 L 21.855469 18.855469 L 23.144531 18.855469 Z M 23.144531 18 L 21 18 L 21 19.714844 L 5.570312 19.714844 L 5.570312 18 L 0.855469 18 L 0.855469 6.855469 L 3.429688 6.855469 L 3.429688 4.285156 L 10.714844 4.285156 L 10.714844 3 L 17.144531 3 L 17.144531 5.144531 L 23.144531 5.144531 Z M 23.144531 18"/>
</svg>

<svg xmlns="http://www.w3.org/2000/svg" width="32" height="32" viewBox="0 0 24 24">
    <path d="M11.145 7.715H2.57V12h8.575zm-.86 1.11l-2.32 2.32h-.93l2.57-2.575h.68zm-4.46 2.32H4.89L7.465 8.57h.93zM4.108 8.57l-.68.68v-.68zm-.68 1.895L5.32 8.57h.93l-2.57 2.575h-.25zm5.747.68l1.11-1.11v1.11zm0 0M7.715 18.855h8.57v-2.57h-8.57zm.855-1.71h6.86V18H8.57zm0 0M12.855 12h8.575V7.715h-8.575zm.86-1.535l1.89-1.895h.93l-2.57 2.575h-.25zM17.75 8.57h.93l-2.57 2.575h-.934zm1.715 2.575l1.105-1.11v1.11zm1.105-2.32l-2.32 2.32h-.93l2.57-2.575h.68zm-6.175-.255l-.68.68v-.68zm0 0"/>
    <path d="M0 0v24h24V0zm.855.855h22.29v3.43H18v-2.14H9.855V3.43H2.57V6H.855zm22.29 22.29H.855v-4.29h3.86v1.715h17.14v-1.715h1.29zm0-5.145H21v1.715H5.57V18H.855V6.855H3.43v-2.57h7.285V3h6.43v2.145h6zm0 0"/>
</svg>
